X: 26135
T: McGuire's
R: hornpipe
M: 4/4
K: Fmajor
|:(3CDE|FEFG AB (3cde|fdcA FEF^F|GBFB EBDE|FEGF ECDE|
FEFG AB (3cde|fdcA FEFA|Ged=B cagf|1 (3efe d=B c2:|2 (3efe dB cBc^c||
dcBG Ecde|gfcA F2 ED|CGEB Afca|gfed c=Bc^c|
dcBG Ecde|gfca bafd|cAFD B,CAG|2 (3FGF EG F ~c3:|2 (3FGF EG F2F2||

